src/assets/duotone/Milk.svg

<?xml version="1.0" encoding="UTF-8"?>
<svg width="24" height="24" viewBox="0 0 24 24" xmlns="http://www.w3.org/2000/svg">
 <path d="m18 15v4c0 1.65-1.35 3-3 3h-6c-1.65 0-3-1.35-3-3v-5.02l3.89 0.02c0.72999 0 1.45 0.17 2.11 0.5s1.38 0.5 2.12 0.5h3.88z"/>
 <path d="m18 10.83v4.17h-3.88c-0.74 0-1.46-0.17-2.12-0.5s-1.38-0.5-2.11-0.5l-3.89-0.02v-3.15c0-0.46 0.26003-1.09 0.59003-1.42l2.12-2.12c0.18-0.18 0.28998-0.44 0.28998-0.7v-1.68c0.16 0.06 0.32 0.08999 0.5 0.08999h5c0.18 0 0.34-0.02999 0.5-0.08999v1.68c0 0.26 0.11 0.52 0.29 0.7l2.12 2.12c0.33 0.33 0.59 0.96004 0.59 1.42z" opacity=".4"/>
 <path d="M14.5 2H9.5C8.67 2 8 2.67 8 3.5C8 4.15 8.42 4.71 9 4.91C9.16 4.97 9.32 5 9.5 5H14.5C14.68 5 14.84 4.97 15 4.91C15.58 4.71 16 4.15 16 3.5C16 2.67 15.33 2 14.5 2Z"/>
</svg>

<svg width="24" height="24" viewBox="0 0 24 24"  xmlns="http://www.w3.org/2000/svg">
<path d="M18 15.0005V19.0005C18 20.6505 16.65 22.0005 15 22.0005H9C7.35 22.0005 6 20.6505 6 19.0005V13.9805L9.89001 14.0005C10.62 14.0005 11.34 14.1705 12 14.5005C12.66 14.8305 13.38 15.0005 14.12 15.0005H18Z" />
<path opacity="0.4" d="M18 10.8302V15.0002H14.12C13.38 15.0002 12.66 14.8302 12 14.5002C11.34 14.1702 10.62 14.0002 9.89001 14.0002L6 13.9802V10.8302C6 10.3702 6.26003 9.74016 6.59003 9.41016L8.71002 7.29015C8.89002 7.11015 9 6.85015 9 6.59015V4.91016C9.16 4.97016 9.32 5.00015 9.5 5.00015H14.5C14.68 5.00015 14.84 4.97016 15 4.91016V6.59015C15 6.85015 15.11 7.11015 15.29 7.29015L17.41 9.41016C17.74 9.74016 18 10.3702 18 10.8302Z" />
<path d="M14.5 2H9.5C8.67 2 8 2.67 8 3.5C8 4.15 8.42 4.71 9 4.91C9.16 4.97 9.32 5 9.5 5H14.5C14.68 5 14.84 4.97 15 4.91C15.58 4.71 16 4.15 16 3.5C16 2.67 15.33 2 14.5 2Z" />
</svg>
